gtk/icons/gesture-rotate-clockwise-symbolic.svg

<svg width="64" height="64">
  <path
     d="M 22.387027,3.8130425 27.118815,8.5223082 22.17398,13.006685 Z"/>
  <path
     d="m 24.296407,8.427795 a 11.002,11.002 0 0 0 -8.765934,2.567446 11.002,11.002 0 0 0 -3.805993,8.302305"/>
  <path
     d="m 46.385458,12.420975 a 4,4 0 0 0 -3.773026,2.296787 L 31.832254,36.86651 c -0.03769,0.0592 -0.08544,0.107448 -0.121118,0.168636 l -0.148627,0.262782 -3e-5,-0.006 c -0.374864,0.599971 -1.137436,0.492962 -1.235649,-0.311534 l 1.166124,-14.87631 a 4,4 0 0 0 -2.652703,-4.138167 3.987,3.987 0 0 0 -0.111182,-0.03442 3.968,3.968 0 0 0 -0.664819,-0.154521 l -0.112071,-0.01341 c -0.09005,-0.0095 -0.180097,-0.01806 -0.270117,-0.02159 -0.05301,-0.0017 -0.107009,-0.0014 -0.161008,-0.0011 a 4.07,4.07 0 0 0 -0.157019,-0.0032 l -0.06197,0.0063 c -0.07998,0.0044 -0.159947,0.01084 -0.239893,0.02126 -0.04499,0.0033 -0.08994,0.01047 -0.13492,0.01571 a 4.031,4.031 0 0 0 -0.373628,0.07196 2.881,2.881 0 0 0 -0.107877,0.02357 4,4 0 0 0 -2.940252,3.779447 l -2.106498,26.839397 c 0,0 -3.311578,-0.292664 -3.318789,-1.669645 l -0.04662,-8.904879 c -0.01209,-2.317968 -1.805887,-4.175601 -4.021857,-4.163998 -2.21597,0.01163 -3.990169,1.887918 -3.978033,4.205886 l 0.05565,10.629855 c 6.81e-4,0.129998 0.02732,0.25086 0.03898,0.377801 l -0.04967,0.06326 c 0.0079,1.507979 0.148763,2.81926 0.642161,4.230695 l 0.04909,0.01774 3.291795,6.445853 c 0.669395,1.410514 1.513902,2.269104 3.546874,2.258459 l 26.803622,-0.142343 c 1.546979,-0.0081 3.615348,-1.088946 4.256773,-2.155318 L 56.722179,45.572307 C 57.871649,43.55826 57.246521,41.052499 55.321746,39.954562 53.39597,38.85663 50.9228,39.59459 49.77333,41.608636 l -0.390424,0.684053 -0.870606,-0.495448 1.664746,-2.917756 c 1.14947,-2.014046 0.524342,-4.519807 -1.399434,-5.61775 -1.925775,-1.097931 -4.399945,-0.359967 -5.549416,1.654079 l -1.664739,2.918757 -1.02006,-0.581667 8.920194,-18.320956 a 4,4 0 0 0 0.425361,-0.887241 c 1.149485,-2.584053 -0.671878,-5.513557 -3.499494,-5.623753 z"/>
  <path
     d="m 36.037909,19.561335 c 1.265297,4.787446 -1.615989,9.734418 -6.404435,10.999711 -4.788446,1.265293 -9.735425,-1.613993 -11.000719,-6.402439 -1.265292,-4.788445 1.61399,-9.734425 6.402435,-10.999718 4.788447,-1.265293 9.737426,1.614 11.002722,6.401446 z m -2.900691,0.765879 a 5.98,5.98 0 0 0 -7.335144,-4.26863 5.977,5.977 0 0 0 -4.268627,7.334144 5.977,5.977 0 0 0 7.333145,4.268624 5.98,5.98 0 0 0 4.270629,-7.335138 z m 21.834027,-5.985821 c 1.265294,4.788445 -1.613992,9.735425 -6.402439,11.000718 -4.788445,1.265293 -9.734424,-1.613989 -11.000718,-6.402438 -1.264292,-4.788443 1.61399,-9.7344262 6.402439,-11.0007191 4.788443,-1.2642929 9.735426,1.6139928 11.000718,6.4024391 z m -2.900694,0.766879 a 5.977,5.977 0 0 0 -7.333145,-4.268624 5.978,5.978 0 0 0 -4.268627,7.334145 5.978,5.978 0 0 0 7.334149,4.267627 5.977,5.977 0 0 0 4.267623,-7.333148 z"/>
</svg>

<svg
        xmlns='http://www.w3.org/2000/svg'
        xmlns:svg='http://www.w3.org/2000/svg'
        width='64'
        height='64'>
  <path
          clip-path='none'
          fill='url(#gpa:foreground) rgb(0,0,0)'
          fill-opacity='1'
          fill-rule='nonzero'
          d='M 22.387 3.81304 L 27.1188 8.52231 L 22.174 13.0067 Z'
          class='foreground foreground-fill'>
  </path>
  <path
          clip-path='none'
          fill='url(#gpa:foreground) rgb(0,0,0)'
          fill-opacity='1'
          fill-rule='nonzero'
          d='M 24.2964 8.4278 C 21.1404 7.97291, 17.9423 8.90959, 15.5305 10.9952 C 13.1188 13.0805, 11.7303 16.1094, 11.7245 19.2975'
          class='foreground foreground-fill'>
  </path>
  <path
          clip-path='none'
          fill='url(#gpa:foreground) rgb(0,0,0)'
          fill-opacity='1'
          fill-rule='nonzero'
          d='M 46.3855 12.421 C 44.7808 12.3598, 43.295 13.2642, 42.6124 14.7178 L 31.8323 36.8665 C 31.7946 36.9257, 31.7468 36.974, 31.7111 37.0351 L 31.5625 37.2979 L 31.5625 37.2919 C 31.1876 37.8919, 30.425 37.7849, 30.3268 36.9804 L 31.493 22.1041 C 31.6605 20.28, 30.5677 18.5752, 28.8403 17.9659 L 28.7291 17.9315 C 28.5123 17.861, 28.2899 17.8093, 28.0643 17.777 L 27.9522 17.7636 C 27.8621 17.7541, 27.7721 17.7455, 27.6821 17.742 Q 27.6025 17.7394, 27.5211 17.7409 Q 27.4426 17.7378, 27.364 17.7377 L 27.3021 17.744 Q 27.1821 17.7506, 27.0622 17.7652 C 27.0172 17.7685, 26.9722 17.7757, 26.9273 17.7809 Q 26.7388 17.8081, 26.5536 17.8529 L 26.4457 17.8765 C 24.7366 18.3457, 23.54 19.8838, 23.5055 21.6559 L 21.399 48.4953 C 21.399 48.4953, 18.0874 48.2027, 18.0802 46.8257 L 18.0336 37.9208 C 18.0215 35.6028, 16.2277 33.7452, 14.0117 33.7568 C 11.7958 33.7684, 10.0216 35.6447, 10.0337 37.9627 L 10.0893 48.5925 C 10.09 48.7225, 10.1167 48.8434, 10.1283 48.9703 L 10.0787 49.0336 C 10.0866 50.5416, 10.2274 51.8529, 10.7208 53.2643 L 10.7699 53.282 L 14.0617 59.7279 C 14.7311 61.1384, 15.5756 61.997, 17.6086 61.9863 L 44.4122 61.844 C 45.9592 61.8359, 48.0275 60.7551, 48.669 59.6887 L 56.7222 45.5723 C 57.8717 43.5583, 57.2465 41.0525, 55.3217 39.9546 C 53.396 38.8566, 50.9228 39.5946, 49.7733 41.6086 L 49.3829 42.2927 L 48.5123 41.7972 L 50.177 38.8795 C 51.3265 36.8654, 50.7014 34.3597, 48.7776 33.2617 C 46.8518 32.1638, 44.3777 32.9018, 43.2282 34.9158 L 41.5635 37.8346 L 40.5434 37.2529 L 49.4636 18.9319 C 49.6413 18.6548, 49.7842 18.3568, 49.889 18.0447 C 51.0384 15.4607, 49.2171 12.5311, 46.3895 12.421 Z'
          class='foreground foreground-fill'>
  </path>
  <path
          clip-path='none'
          fill='url(#gpa:foreground) rgb(0,0,0)'
          fill-opacity='1'
          fill-rule='nonzero'
          d='M 36.0379 19.5613 C 37.3032 24.3488, 34.4219 29.2958, 29.6335 30.561 C 24.845 31.8263, 19.898 28.9471, 18.6328 24.1586 C 17.3675 19.3702, 20.2467 14.4242, 25.0352 13.1589 C 29.8236 11.8936, 34.7726 14.7729, 36.0379 19.5603 Z M 33.1372 20.3272 C 32.7356 18.7854, 31.7352 17.4675, 30.3581 16.6662 C 28.981 15.8648, 27.3411 15.6461, 25.8021 16.0586 C 24.26 16.4595, 22.9418 17.4596, 22.1404 18.8367 C 21.3389 20.2138, 21.1204 21.8539, 21.5334 23.3927 C 21.9344 24.9346, 22.9343 26.2526, 24.3112 27.054 C 25.688 27.8555, 27.3279 28.0741, 28.8666 27.6614 C 30.4088 27.2601, 31.7271 26.26, 32.5289 24.8828 C 33.3307 23.5057, 33.5497 21.8655, 33.1372 20.3262 Z M 54.9712 14.3414 C 56.2365 19.1298, 53.3573 24.0768, 48.5688 25.3421 C 43.7804 26.6074, 38.8344 23.7281, 37.5681 18.9397 C 36.3038 14.1512, 39.1821 9.20525, 43.9705 7.93895 C 48.759 6.67466, 53.706 9.55295, 54.9712 14.3414 Z M 52.0706 15.1083 C 51.6696 13.5664, 50.6697 12.2485, 49.2928 11.447 C 47.916 10.6455, 46.2761 10.4269, 44.7374 10.8396 C 43.1955 11.2408, 41.8775 12.2409, 41.0761 13.618 C 40.2746 14.995, 40.056 16.6349, 40.4688 18.1738 C 40.8702 19.7155, 41.8704 21.0333, 43.2474 21.8345 C 44.6244 22.6358, 46.2642 22.8542, 47.8029 22.4414 C 49.3446 22.0402, 50.6623 21.0402, 51.4636 19.6634 C 52.2649 18.2866, 52.4833 16.6469, 52.0706 15.1083 Z'
          class='foreground foreground-fill'>
  </path>
</svg>
